src/img/sbb/share/picture_147_large.svg

<svg xmlns="http://www.w3.org/2000/svg" viewBox="0 0 48 48"><path fill="none" stroke="#000" stroke-width="2" d="M5 35h38M8 35l6-11 8 7 10-11 8 15M14 11c1.658 0 3 1.342 3 3s-1.342 3-3 3-3-1.342-3-3 1.342-3 3-3zM5 43h38V5H5v38z"/></svg>

<svg xmlns="http://www.w3.org/2000/svg" width="48" height="48" viewBox="0 0 48 48">
  <path fill="none" stroke="#000" stroke-width="2" d="M5,35 L43,35 M8,35 L14,24 L22,31 L32,20 L40,35 M14,11 C15.658,11 17,12.342 17,14 C17,15.658 15.658,17 14,17 C12.342,17 11,15.658 11,14 C11,12.342 12.342,11 14,11 Z M5,43 L43,43 L43,5 L5,5 L5,43 Z"/>
</svg>
